src/assets/filled/SidebarRight.svg

<svg width="24" height="24" viewBox="0 0 24 24"  xmlns="http://www.w3.org/2000/svg">
<path d="M7.81 2C6.32 2 5.08 2.36 4.13 3.05C3.71 3.34 3.34 3.71 3.05 4.13C2.36 5.08 2 6.32 2 7.81V16.19C2 19.83 4.17 22 7.81 22H15.28V2H7.81ZM12.12 12.53L9.56 15.09C9.41 15.24 9.22 15.31 9.03 15.31C8.84 15.31 8.65 15.24 8.5 15.09C8.21 14.8 8.21 14.32 8.5 14.03L10.52 12L8.5 9.97C8.2 9.68 8.2 9.2 8.5 8.91C8.8 8.62 9.27 8.62 9.56 8.91L12.12 11.47C12.41 11.76 12.41 12.24 12.12 12.53Z" />
<path d="M16.78 2.03027V21.9803C18.01 21.9003 19.05 21.5503 19.87 20.9503C20.29 20.6603 20.66 20.2903 20.95 19.8703C21.64 18.9203 22 17.6803 22 16.1903V7.81027C22 4.37027 20.06 2.24027 16.78 2.03027Z" />
</svg>

<?xml version="1.0" encoding="UTF-8"?>
<svg width="24" height="24" viewBox="0 0 24 24" xmlns="http://www.w3.org/2000/svg">
 <path d="m7.81 2c-1.49 0-2.73 0.36-3.68 1.05-0.42 0.29-0.79 0.66-1.08 1.08-0.69 0.95-1.05 2.19-1.05 3.68v8.38c0 3.64 2.17 5.81 5.81 5.81h7.47v-20h-7.47zm4.31 10.53-2.56 2.56c-0.15 0.15-0.34 0.22-0.53 0.22s-0.38-0.07-0.53-0.22c-0.29-0.29-0.29-0.77 0-1.06l2.02-2.03-2.02-2.03c-0.3-0.29-0.3-0.77 0-1.06s0.77-0.29 1.06 0l2.56 2.56c0.29 0.29 0.29 0.77 0 1.06z"/>
 <path d="m16.78 2.0303v19.95c1.23-0.08 2.27-0.43 3.09-1.03 0.42-0.29 0.79-0.66 1.08-1.08 0.69-0.95 1.05-2.19 1.05-3.68v-8.38c0-3.44-1.94-5.57-5.22-5.78z"/>
</svg>
